build/category/AcuringFutureSolid.svg

<svg xmlns="http://www.w3.org/2000/svg" fill="none" viewBox="0 0 24 24" focusable="false"><path d="M0 0H24V24H0z"/><path fill="#74767B" fill-rule="evenodd" d="M15.1445 19.7L9.14453 19.7C8.20565 19.7 7.44453 18.9389 7.44453 18L7.44453 15.8031L16.8445 15.8031L16.8445 18C16.8445 18.9389 16.0834 19.7 15.1445 19.7ZM18.1445 15.1031L18.1445 18C18.1445 19.6569 16.8014 21 15.1445 21L9.14453 21C7.48768 21 6.14453 19.6569 6.14453 18L6.14453 6.06384C6.14453 4.40699 7.48768 3.06384 9.14453 3.06384L15.1445 3.06384C16.8014 3.06384 18.1445 4.40699 18.1445 6.06384L18.1445 6.75574L18.1445 15.1031ZM12.253 11.4223C12.1216 11.7344 11.7489 11.844 11.4454 11.6936C11.1075 11.5261 10.9919 11.1051 11.12 10.7504C11.2536 10.3804 11.3265 9.9813 11.3265 9.56522C11.3265 9.16092 11.2577 8.77268 11.1312 8.41156C11.0073 8.05785 11.1243 7.64099 11.4601 7.47453C11.7659 7.32296 12.1414 7.43518 12.2708 7.75099C12.5001 8.31053 12.6265 8.92312 12.6265 9.56522C12.6265 10.2238 12.4935 10.8513 12.253 11.4223ZM13.7298 12.826C14.0405 12.98 14.4203 12.8628 14.561 12.5459C14.9655 11.6348 15.1903 10.6263 15.1903 9.56524C15.1903 8.51984 14.9721 7.52539 14.5788 6.62496C14.4394 6.30572 14.0578 6.18683 13.7457 6.34155C13.4151 6.50543 13.2914 6.91116 13.4325 7.2521C13.7275 7.96474 13.8903 8.74598 13.8903 9.56524C13.8903 10.3973 13.7224 11.1902 13.4186 11.9118C13.2749 12.2532 13.3978 12.6614 13.7298 12.826ZM9.46018 10.234C9.81917 10.234 10.1102 9.94301 10.1102 9.58403C10.1102 9.22504 9.81917 8.93403 9.46018 8.93403C9.1012 8.93403 8.81018 9.22504 8.81018 9.58403C8.81018 9.94301 9.1012 10.234 9.46018 10.234ZM9.05322 17.7535C9.05322 17.3944 9.34429 17.1033 9.70334 17.1033L14.7967 17.1033C15.1557 17.1033 15.4468 17.3944 15.4468 17.7535C15.4468 18.1125 15.1557 18.4036 14.7967 18.4036L9.70334 18.4036C9.34429 18.4036 9.05322 18.1125 9.05322 17.7535Z"/></svg>

<svg xmlns="http://www.w3.org/2000/svg" fill="none" viewBox="0 0 24 24" focusable="false"><path fill="#74767B" fill-rule="evenodd" d="M15.14 19.7h-6c-.94 0-1.7-.77-1.7-1.7v-2.2h9.4V18c0 .93-.76 1.7-1.7 1.7m3-4.6V18c0 1.65-1.34 3-3 3h-6c-1.66 0-3-1.35-3-3V6.06c0-1.66 1.34-3 3-3h6c1.66 0 3 1.34 3 3v9.04m-5.89-3.68c-.13.31-.51.42-.81.27-.34-.17-.45-.59-.32-.94.13-.37.2-.77.2-1.19 0-.4-.07-.79-.19-1.15-.13-.36-.01-.77.33-.94.3-.15.68-.04.81.28.23.56.35 1.17.35 1.81 0 .66-.13 1.29-.37 1.86m1.48 1.4c.31.16.69.04.83-.28.4-.91.63-1.92.63-2.98 0-1.05-.22-2.04-.62-2.94a.6.6 0 0 0-.83-.28c-.33.16-.45.57-.31.91.29.71.46 1.49.46 2.31 0 .83-.17 1.63-.48 2.35-.14.34-.02.75.32.91m-4.28-2.59c.36 0 .66-.29.66-.65s-.3-.65-.66-.65c-.35 0-.64.29-.64.65s.29.65.64.65m-.4 7.52c0-.36.29-.65.65-.65h5.09c.36 0 .65.29.65.65s-.29.65-.65.65H9.7c-.36 0-.65-.29-.65-.65"/></svg>
